X:1
T:Title
%%score { ( 1 5 ) | ( 2 3 4 ) }
L:1/8
M:6/4
K:Db
V:1 treble nm="Grand Piano"
V:5 treble 
V:2 treble 
V:3 treble 
V:4 treble 
V:1
 z6 z4[Q:1/4=105] AB | [FA]2 F2 G2 [FA]4 AB | [FA]2 F2 F2 [FA]4 A2 | %3
 [Bd]2 c2 B2 [FA]2 [EG]2 [DF]2 | [CE]6- [CE]4 AB | [FA]2 F2 G2 [FA]4 dd | %6
 [Fd]2 c2 F2 .[DB]4 [_FB]B | [FA]2 F2 d2 [Gc]2 B2 c2 |[M:5/4] [Fd]2- [Fd]2- [Fd]6 |[M:1/4] [FA]2 | %10
[M:6/4] [FA]2 [DF]2 [EG]2 [FA]4 F2 | E2 F2 [CG]2 [DF]4 [FA]2 | [Dd]2 [Ec]2 [FB]2 [FA]2 G2 F2 | %13
 E2 E2 _F2 =F4 [GA]2 | [FA]2 [DF]2 [EG]2 [FA]2 [Fd]2 [Fd]2 | z6 .B6 | A2 F2 d2 [Gc]2 [GB]2 [Gc]2 | %17
[M:5/4] [Fd]2- [Fd]2- [Fd]6 |] %18
V:2
 z6 z4 FG | z2 D2 E2 z4[K:treble] FG | z2 D2 D2 z4 F2 | z2[K:treble] A2 G2[K:bass] D,2 C,2 D,2 | %4
 A,,6- A,,4[K:treble] GG | z2 D2 E2 z4[K:treble] FF | z2 E2 E2 z2 .E3 _F | %7
 z2[K:treble] D2 F2 z2 G2 G2 |[M:5/4][K:bass] [D,A,]2- [D,A,]2- [D,A,]6 |[M:1/4] [D,D]2 | %10
[M:6/4] [D,D]2 [D,A,]2 [D,A,]2 [D,D]4 [D,A,D]2 | [G,A,C]2 [F,A,D]2 [A,,A,]2 [D,A,]4 [D,A,]2 | %12
 [B,,B,]2 [C,=A,]2 [D,B,]2 [=D,_C]2 [E,B,E]2 [F,B,D]2 | %13
 [G,B,D]2 [G,B,D]2 [G,B,]2 [F,=A,C]4 [E,C]2 | [D,D]2 [D,A,]2 [D,A,]2 [D,D]2 [D,A,]2 [D,A,]2 | %15
 [F,A,F]2 [F,=A,E]2 [F,A,E]2 .[G,B,D]4[K:treble] [_A,D_F]2 | %16
 [A,DF]2 [A,D]2 [A,F]2[K:bass] [A,,A,]2 [A,,A,]2 [A,,A,]2 |[M:5/4] [D,A,]2- [D,A,]2- [D,A,]6 |] %18
V:3
 x12 | z6 D,6[K:treble] | z6 D,6 | G,,6[K:treble][K:bass] z6 | x10[K:treble] x2 | %5
 z6 D,6[K:treble] | F,,6 G,,4 =G,,2 | z6[K:treble] A,6 |[M:5/4][K:bass] x10 |[M:1/4] x2 | %10
[M:6/4] x12 | x12 | x12 | x12 | x12 | x10[K:treble] x2 | x6[K:bass] x6 |[M:5/4] x10 |] %18
V:4
 x12 | D,,12[K:treble] | D,,12 | x2[K:treble] x4[K:bass] x6 | x10[K:treble] x2 | D,,12[K:treble] | %6
 x12 | A,,12[K:treble] |[M:5/4][K:bass] x10 |[M:1/4] x2 |[M:6/4] x12 | x12 | x12 | x12 | x12 | %15
 x10[K:treble] x2 | x6[K:bass] x6 |[M:5/4] x10 |] %18
V:5
 x12 | x12 | x12 | x12 | x12 | x12 | x12 | x12 |[M:5/4] x10 |[M:1/4] x2 |[M:6/4] x12 | x12 | x12 | %13
 x12 | x12 | d2 c2 F2 z2 E2 B2 | x12 |[M:5/4] x10 |] %18

